exports/employment-in-the-coal-industry-in-the-united-kingdom-1873-2016_v1_850x600.svg

<svg xmlns="http://www.w3.org/2000/svg" version="1.1" style="background-color:#fff;-webkit-font-smoothing:antialiased" width="850" height="600" font-family="'Helvetica Neue',Helvetica,Arial,sans-serif" font-size="18" text-rendering="optimizeLegibility"><g class="ChartTab"><g class="HeaderView"><g opacity=".8" transform="matrix(.31 0 0 .31 770 15)"><a xmlns:xlink="http://www.w3.org/1999/xlink" xlink:href="https://ourworldindata.org" target="_blank"><g><path fill="#1B2543" d="M0 0h211.2v130.1H0z"/><path fill="#E63912" d="M0 112.2h211.2v17.9H0z"/><g><path fill="none" d="M1.2 12.3h210.2v99.2H1.2z"/><path fill="#FFF" d="M37.8 32.2c0 12.7-7.7 19.4-17.1 19.4-9.7 0-16.6-7.5-16.6-18.7 0-11.7 7.3-19.3 17.1-19.3 10.1.1 16.6 7.7 16.6 18.6zm-28.6.6c0 7.9 4.3 14.9 11.8 14.9 7.5 0 11.8-6.9 11.8-15.3 0-7.3-3.8-14.9-11.8-14.9-7.9 0-11.8 7.3-11.8 15.3zM62.7 43.8c0 2.7.1 5.1.2 7.2h-4.3l-.3-4.3h-.1c-1.3 2.1-4 4.9-8.8 4.9-4.2 0-9.1-2.3-9.1-11.6V24.6h4.8v14.6c0 5 1.5 8.4 5.9 8.4 3.2 0 5.5-2.2 6.3-4.4.3-.7.4-1.6.4-2.5V24.6h4.8v19.2zM67.3 32.8c0-3.1-.1-5.8-.2-8.2h4.2l.2 5.2h.2c1.2-3.5 4.1-5.8 7.3-5.8.5 0 .9.1 1.4.2v4.5c-.5-.1-1-.2-1.6-.2-3.4 0-5.8 2.6-6.5 6.2-.1.7-.2 1.4-.2 2.2V51h-4.8V32.8zM95.4 51L86 14.2h5l4.4 18.6c1.1 4.6 2.1 9.2 2.7 12.7h.1c.6-3.7 1.8-8 3-12.8l4.9-18.5h5l4.5 18.7c1 4.4 2 8.7 2.6 12.6h.1c.8-4 1.8-8.1 3-12.7l4.9-18.5h4.9L120.6 51h-5L111 31.9c-1.1-4.7-1.9-8.3-2.4-12h-.1c-.7 3.7-1.5 7.3-2.8 12L100.4 51h-5zM154.9 37.6c0 9.8-6.8 14-13.2 14-7.2 0-12.7-5.2-12.7-13.6 0-8.8 5.8-14 13.1-14 7.7 0 12.8 5.5 12.8 13.6zm-21 .3c0 5.8 3.3 10.1 8 10.1 4.6 0 8-4.3 8-10.3 0-4.5-2.2-10.1-7.9-10.1s-8.1 5.2-8.1 10.3zM158.2 32.8c0-3.1-.1-5.8-.2-8.2h4.2l.2 5.2h.2c1.2-3.5 4.1-5.8 7.3-5.8.5 0 .9.1 1.4.2v4.5c-.5-.1-1-.2-1.6-.2-3.4 0-5.8 2.6-6.5 6.2-.1.7-.2 1.4-.2 2.2V51h-4.8V32.8zM173.5 12.3h4.8V51h-4.8V12.3zM206.5 12.3v31.9c0 2.3.1 5 .2 6.8h-4.3l-.2-4.6h-.2c-1.5 2.9-4.7 5.2-9 5.2-6.4 0-11.3-5.4-11.3-13.4-.1-8.8 5.4-14.2 11.9-14.2 4 0 6.8 1.9 8 4h.1V12.3h4.8zm-4.8 23.1c0-.6-.1-1.4-.2-2a7 7 0 00-6.9-5.6c-5 0-7.9 4.4-7.9 10.2 0 5.3 2.6 9.8 7.8 9.8 3.2 0 6.2-2.1 7.1-5.7.2-.7.2-1.3.2-2.1v-4.6zM42.8 64c.1 1.6-1.1 2.9-3.1 2.9-1.7 0-2.9-1.3-2.9-2.9 0-1.7 1.3-3 3-3 1.9 0 3 1.3 3 3zm-5.4 33.8V71.4h4.8v26.4h-4.8zM47.5 78.6c0-2.7-.1-5-.2-7.1h4.3l.3 4.4h.1c1.3-2.5 4.4-5 8.8-5 3.7 0 9.4 2.2 9.4 11.2v15.8h-4.8V82.6c0-4.3-1.6-7.8-6.1-7.8-3.2 0-5.6 2.2-6.5 4.9-.2.6-.3 1.4-.3 2.2v15.9h-4.8V78.6zM84 61.6c2.9-.4 6.3-.8 10.1-.8 6.8 0 11.7 1.6 14.9 4.6 3.3 3 5.2 7.3 5.2 13.2 0 6-1.9 10.9-5.3 14.3-3.4 3.4-9.1 5.3-16.3 5.3-3.4 0-6.2-.2-8.6-.4V61.6zm4.8 32.5c1.2.2 3 .3 4.8.3 10.2 0 15.7-5.7 15.7-15.6.1-8.7-4.9-14.2-14.9-14.2-2.5 0-4.3.2-5.6.5v29zM132.1 97.8l-.4-3.3h-.2a9.79 9.79 0 01-8.1 3.9c-5.4 0-8.1-3.8-8.1-7.6 0-6.4 5.7-9.9 15.9-9.8v-.5c0-2.2-.6-6.1-6-6.1-2.5 0-5 .8-6.9 2l-1.1-3.2c2.2-1.4 5.4-2.3 8.7-2.3 8.1 0 10.1 5.5 10.1 10.8v9.9c0 2.3.1 4.5.4 6.3h-4.3zm-.7-13.4c-5.3-.1-11.2.8-11.2 5.9 0 3.1 2.1 4.6 4.5 4.6 3.4 0 5.6-2.2 6.4-4.4.2-.5.3-1 .3-1.5v-4.6zM146.6 63.9v7.6h6.9v3.7h-6.9v14.2c0 3.3.9 5.1 3.6 5.1 1.3 0 2.2-.2 2.8-.3l.2 3.6c-.9.4-2.4.7-4.3.7-2.2 0-4-.7-5.2-2-1.4-1.4-1.9-3.8-1.9-6.9V75.1h-4.1v-3.7h4.1v-6.3l4.8-1.2zM171.4 97.8l-.4-3.3h-.2a9.79 9.79 0 01-8.1 3.9c-5.4 0-8.1-3.8-8.1-7.6 0-6.4 5.7-9.9 15.9-9.8v-.5c0-2.2-.6-6.1-6-6.1-2.5 0-5 .8-6.9 2l-1.1-3.2c2.2-1.4 5.4-2.3 8.7-2.3 8.1 0 10.1 5.5 10.1 10.8v9.9c0 2.3.1 4.5.4 6.3h-4.3zm-.7-13.4c-5.3-.1-11.2.8-11.2 5.9 0 3.1 2.1 4.6 4.5 4.6 3.4 0 5.6-2.2 6.4-4.4.2-.5.3-1 .3-1.5v-4.6z"/></g></g></a></g><a href="https://ourworldindata.org/grapher/employment-in-the-coal-industry-in-the-united-kingdom-1873-2016" target="_blank"><text font-size="24.3" x="15" y="34.4" fill="#555"><tspan x="15" y="34.44">Employment in the coal industry in the United Kingdom, 1873-2016</tspan></text></a><text font-size="14.4" x="15" y="52.8" fill="#666"><tspan x="15" y="52.82">Total number of individuals employed in the coal industry in the United Kingdom from 1873-2016. Figures include</tspan><tspan x="15" y="68.66">those employed as contractors by the coal industry.</tspan></text></g><g class="LineChart"><defs><clipPath id="a"><path d="M69.45 0h830v930.6h-830z"/></clipPath></defs><g class="AxisBoxView"><g class="HorizontalAxis" fill="#666" text-anchor="middle" font-size="16.2"><text x="79.5" y="556.5">1873</text><text x="198" y="556.5">1900</text><text x="285.8" y="556.5">1920</text><text x="373.6" y="556.5">1940</text><text x="461.4" y="556.5">1960</text><text x="549.2" y="556.5">1980</text><text x="636.9" y="556.5">2000</text><text x="707.2" y="556.5">2016</text></g><g class="VerticalAxis" fill="#666" dominant-baseline="middle" text-anchor="end" font-size="16.2"><text x="74.45" y="535.3">0</text><text x="74.45" y="460.7">200,000</text><text x="74.45" y="386.1">400,000</text><text x="74.45" y="311.6">600,000</text><text x="74.45" y="237">800,000</text><text x="74.45" y="162.4">1 million</text></g><g class="AxisGridLines"><path stroke="#ccc" d="M79.45 535.3h627.73"/><path stroke="#ddd" stroke-dasharray="3,2" d="M79.45 460.7h627.73M79.45 386.1h627.73M79.45 311.6h627.73M79.45 237h627.73M79.45 162.4h627.73"/></g><g class="AxisGridLines" stroke="#ddd" stroke-dasharray="3,2"><path d="M110.2 535.3V91.2M198 535.3V91.2M285.8 535.3V91.2M373.6 535.3V91.2M461.4 535.3V91.2M549.2 535.3V91.2M636.9 535.3V91.2"/></g></g><g clip-path="url(#a)"><g class="HeightedLegend clickable"><g class="legendMark"><path fill="#3360a9" d="M717.18 533.75h10v2.5h-10z"/><text font-size="14.4" x="732.2" y="539.3" fill="#333"><tspan x="732.18" y="539.32">United Kingdom</tspan></text></g></g><g class="Lines"><g class="key-United-Kingdom_0"><path stroke="#3360a9" stroke-linecap="round" d="M80 361l43-26 44-58 44-80 44-74 4 25 5 39 4-17 5-8 4 4 4-54 5-21 9 40 4-25 4-4 5 31 9 33 4 28 4-4 5 6 4 25 4 18 5 10h4l5 6 4 1 4-9 5-1 4 6 5 6 4 19 4-4 5 1 4-1 5 1 4 3 4-5 5-5 4 1 5 9 4-1 4-6 5-1 4 3 4 1h5l4-2 5 4 4 12 4 22 5 12 4 7 5 10 4 10 4 18 5 12 4 12 5 22 4 9 4 6 5 2 4 4 4 8h9l5 1 4 1 4 3 5-1 4 2 5 24 4 3 4 6 5 4 4 9 5 8 4 6 4 3 5 4 4 3 4 4 5 4 4 7 5 1 4-2 4 1 5-2 4 1h13l5 1h9l4 1h31l4 1h4l5 1h4" fill="none" stroke-width="1.5"/><g fill="#3360a9"><circle cx="80" cy="361" r="2"/><circle cx="123" cy="335" r="2"/><circle cx="167" cy="277" r="2"/><circle cx="211" cy="197" r="2"/><circle cx="255" cy="123" r="2"/><circle cx="259" cy="148" r="2"/><circle cx="264" cy="187" r="2"/><circle cx="268" cy="170" r="2"/><circle cx="273" cy="162" r="2"/><circle cx="277" cy="166" r="2"/><circle cx="281" cy="112" r="2"/><circle cx="286" cy="91" r="2"/><circle cx="295" cy="131" r="2"/><circle cx="299" cy="106" r="2"/><circle cx="303" cy="102" r="2"/><circle cx="308" cy="133" r="2"/><circle cx="317" cy="166" r="2"/><circle cx="321" cy="194" r="2"/><circle cx="325" cy="190" r="2"/><circle cx="330" cy="196" r="2"/><circle cx="334" cy="221" r="2"/><circle cx="338" cy="239" r="2"/><circle cx="343" cy="249" r="2"/><circle cx="347" cy="249" r="2"/><circle cx="352" cy="255" r="2"/><circle cx="356" cy="256" r="2"/><circle cx="360" cy="247" r="2"/><circle cx="365" cy="246" r="2"/><circle cx="369" cy="252" r="2"/><circle cx="374" cy="258" r="2"/><circle cx="378" cy="277" r="2"/><circle cx="382" cy="273" r="2"/><circle cx="387" cy="274" r="2"/><circle cx="391" cy="273" r="2"/><circle cx="396" cy="274" r="2"/><circle cx="400" cy="277" r="2"/><circle cx="404" cy="272" r="2"/><circle cx="409" cy="267" r="2"/><circle cx="413" cy="268" r="2"/><circle cx="418" cy="277" r="2"/><circle cx="422" cy="276" r="2"/><circle cx="426" cy="270" r="2"/><circle cx="431" cy="269" r="2"/><circle cx="435" cy="272" r="2"/><circle cx="439" cy="273" r="2"/><circle cx="444" cy="273" r="2"/><circle cx="448" cy="271" r="2"/><circle cx="453" cy="275" r="2"/><circle cx="457" cy="287" r="2"/><circle cx="461" cy="309" r="2"/><circle cx="466" cy="321" r="2"/><circle cx="470" cy="328" r="2"/><circle cx="475" cy="338" r="2"/><circle cx="479" cy="348" r="2"/><circle cx="483" cy="366" r="2"/><circle cx="488" cy="378" r="2"/><circle cx="492" cy="390" r="2"/><circle cx="497" cy="412" r="2"/><circle cx="501" cy="421" r="2"/><circle cx="505" cy="427" r="2"/><circle cx="510" cy="429" r="2"/><circle cx="514" cy="433" r="2"/><circle cx="518" cy="441" r="2"/><circle cx="523" cy="441" r="2"/><circle cx="527" cy="441" r="2"/><circle cx="532" cy="442" r="2"/><circle cx="536" cy="443" r="2"/><circle cx="540" cy="446" r="2"/><circle cx="545" cy="445" r="2"/><circle cx="549" cy="447" r="2"/><circle cx="554" cy="471" r="2"/><circle cx="558" cy="474" r="2"/><circle cx="562" cy="480" r="2"/><circle cx="567" cy="484" r="2"/><circle cx="571" cy="493" r="2"/><circle cx="576" cy="501" r="2"/><circle cx="580" cy="507" r="2"/><circle cx="584" cy="510" r="2"/><circle cx="589" cy="514" r="2"/><circle cx="593" cy="517" r="2"/><circle cx="597" cy="521" r="2"/><circle cx="602" cy="525" r="2"/><circle cx="606" cy="532" r="2"/><circle cx="611" cy="533" r="2"/><circle cx="615" cy="531" r="2"/><circle cx="619" cy="532" r="2"/><circle cx="624" cy="530" r="2"/><circle cx="628" cy="531" r="2"/><circle cx="633" cy="531" r="2"/><circle cx="637" cy="531" r="2"/><circle cx="641" cy="531" r="2"/><circle cx="646" cy="532" r="2"/><circle cx="650" cy="532" r="2"/><circle cx="655" cy="532" r="2"/><circle cx="659" cy="533" r="2"/><circle cx="663" cy="533" r="2"/><circle cx="668" cy="533" r="2"/><circle cx="672" cy="533" r="2"/><circle cx="677" cy="533" r="2"/><circle cx="681" cy="533" r="2"/><circle cx="685" cy="533" r="2"/><circle cx="690" cy="533" r="2"/><circle cx="694" cy="534" r="2"/><circle cx="698" cy="534" r="2"/><circle cx="703" cy="535" r="2"/><circle cx="707" cy="535" r="2"/></g></g></g></g></g><g class="SourcesFooter" fill="#777"><g class="clickable" fill="#777"><text font-size="12.6" x="15" y="581.6"><tspan x="15" y="581.58">Source: UK Department for Energy and Climate Change (DECC)</tspan></text></g><text font-size="12.6" x="582.4" y="581.6"><tspan x="582.37" y="581.58"><a target="_blank" href="https://ourworldindata.org/fossil-fuels/" fill="#777">OurWorldInData.org/fossil-fuels/</a> • <a href="http://creativecommons.org/licenses/by-sa/4.0/deed.en_US" target="_blank" fill="#777">CC BY-SA</a></tspan></text></g></g></svg>

<svg xmlns="http://www.w3.org/2000/svg" version="1.1" style="font-family: 'Helvetica Neue', Helvetica, Arial, sans-serif; font-size: 18px; background-color: white; text-rendering: optimizeLegibility; -webkit-font-smoothing: antialiased;" width="850" height="600"><g class="ChartTab"><g class="HeaderView"><g opacity="0.8" transform="translate(770, 15) scale(0.31)"><a xmlns:xlink="http://www.w3.org/1999/xlink" xlink:href="https://ourworldindata.org" target="_blank"><g><rect x="0" y="0" fill="#1B2543" width="211.2" height="130.1"/><rect x="0" y="112.2" fill="#E63912" width="211.2" height="17.9"/><g><rect x="1.2" y="12.3" fill="none" width="210.2" height="99.2"/><path fill="#FFFFFF" d="M37.8,32.2c0,12.7-7.7,19.4-17.1,19.4c-9.7,0-16.6-7.5-16.6-18.7c0-11.7,7.3-19.3,17.1-19.3 C31.3,13.7,37.8,21.3,37.8,32.2z M9.2,32.8c0,7.9,4.3,14.9,11.8,14.9c7.5,0,11.8-6.9,11.8-15.3c0-7.3-3.8-14.9-11.8-14.9 C13.1,17.5,9.2,24.8,9.2,32.8z"/><path fill="#FFFFFF" d="M62.7,43.8c0,2.7,0.1,5.1,0.2,7.2h-4.3l-0.3-4.3h-0.1c-1.3,2.1-4,4.9-8.8,4.9c-4.2,0-9.1-2.3-9.1-11.6 V24.6h4.8v14.6c0,5,1.5,8.4,5.9,8.4c3.2,0,5.5-2.2,6.3-4.4c0.3-0.7,0.4-1.6,0.4-2.5V24.6h4.8V43.8z"/><path fill="#FFFFFF" d="M67.3,32.8c0-3.1-0.1-5.8-0.2-8.2h4.2l0.2,5.2h0.2c1.2-3.5,4.1-5.8,7.3-5.8c0.5,0,0.9,0.1,1.4,0.2v4.5 c-0.5-0.1-1-0.2-1.6-0.2c-3.4,0-5.8,2.6-6.5,6.2c-0.1,0.7-0.2,1.4-0.2,2.2V51h-4.8V32.8z"/><path fill="#FFFFFF" d="M95.4,51l-9.4-36.8h5l4.4,18.6c1.1,4.6,2.1,9.2,2.7,12.7h0.1c0.6-3.7,1.8-8,3-12.8l4.9-18.5h5l4.5,18.7 c1,4.4,2,8.7,2.6,12.6h0.1c0.8-4,1.8-8.1,3-12.7l4.9-18.5h4.9L120.6,51h-5L111,31.9c-1.1-4.7-1.9-8.3-2.4-12h-0.1 c-0.7,3.7-1.5,7.3-2.8,12L100.4,51H95.4z"/><path fill="#FFFFFF" d="M154.9,37.6c0,9.8-6.8,14-13.2,14c-7.2,0-12.7-5.2-12.7-13.6c0-8.8,5.8-14,13.1-14 C149.8,24,154.9,29.5,154.9,37.6z M133.9,37.9c0,5.8,3.3,10.1,8,10.1c4.6,0,8-4.3,8-10.3c0-4.5-2.2-10.1-7.9-10.1 C136.3,27.6,133.9,32.8,133.9,37.9z"/><path fill="#FFFFFF" d="M158.2,32.8c0-3.1-0.1-5.8-0.2-8.2h4.2l0.2,5.2h0.2c1.2-3.5,4.1-5.8,7.3-5.8c0.5,0,0.9,0.1,1.4,0.2v4.5 c-0.5-0.1-1-0.2-1.6-0.2c-3.4,0-5.8,2.6-6.5,6.2c-0.1,0.7-0.2,1.4-0.2,2.2V51h-4.8V32.8z"/><path fill="#FFFFFF" d="M173.5,12.3h4.8V51h-4.8V12.3z"/><path fill="#FFFFFF" d="M206.5,12.3v31.9c0,2.3,0.1,5,0.2,6.8h-4.3l-0.2-4.6H202c-1.5,2.9-4.7,5.2-9,5.2 c-6.4,0-11.3-5.4-11.3-13.4c-0.1-8.8,5.4-14.2,11.9-14.2c4,0,6.8,1.9,8,4h0.1V12.3H206.5z M201.7,35.4c0-0.6-0.1-1.4-0.2-2 c-0.7-3.1-3.3-5.6-6.9-5.6c-5,0-7.9,4.4-7.9,10.2c0,5.3,2.6,9.8,7.8,9.8c3.2,0,6.2-2.1,7.1-5.7c0.2-0.7,0.2-1.3,0.2-2.1V35.4z"/><path fill="#FFFFFF" d="M42.8,64c0.1,1.6-1.1,2.9-3.1,2.9c-1.7,0-2.9-1.3-2.9-2.9c0-1.7,1.3-3,3-3C41.7,61,42.8,62.3,42.8,64z M37.4,97.8V71.4h4.8v26.4H37.4z"/><path fill="#FFFFFF" d="M47.5,78.6c0-2.7-0.1-5-0.2-7.1h4.3l0.3,4.4h0.1c1.3-2.5,4.4-5,8.8-5c3.7,0,9.4,2.2,9.4,11.2v15.8h-4.8 V82.6c0-4.3-1.6-7.8-6.1-7.8c-3.2,0-5.6,2.2-6.5,4.9c-0.2,0.6-0.3,1.4-0.3,2.2v15.9h-4.8V78.6z"/><path fill="#FFFFFF" d="M84,61.6c2.9-0.4,6.3-0.8,10.1-0.8c6.8,0,11.7,1.6,14.9,4.6c3.3,3,5.2,7.3,5.2,13.2c0,6-1.9,10.9-5.3,14.3 c-3.4,3.4-9.1,5.3-16.3,5.3c-3.4,0-6.2-0.2-8.6-0.4V61.6z M88.8,94.1c1.2,0.2,3,0.3,4.8,0.3c10.2,0,15.7-5.7,15.7-15.6 c0.1-8.7-4.9-14.2-14.9-14.2c-2.5,0-4.3,0.2-5.6,0.5V94.1z"/><path fill="#FFFFFF" d="M132.1,97.8l-0.4-3.3h-0.2c-1.5,2.1-4.3,3.9-8.1,3.9c-5.4,0-8.1-3.8-8.1-7.6c0-6.4,5.7-9.9,15.9-9.8v-0.5 c0-2.2-0.6-6.1-6-6.1c-2.5,0-5,0.8-6.9,2l-1.1-3.2c2.2-1.4,5.4-2.3,8.7-2.3c8.1,0,10.1,5.5,10.1,10.8v9.9c0,2.3,0.1,4.5,0.4,6.3 H132.1z M131.4,84.4c-5.3-0.1-11.2,0.8-11.2,5.9c0,3.1,2.1,4.6,4.5,4.6c3.4,0,5.6-2.2,6.4-4.4c0.2-0.5,0.3-1,0.3-1.5V84.4z"/><path fill="#FFFFFF" d="M146.6,63.9v7.6h6.9v3.7h-6.9v14.2c0,3.3,0.9,5.1,3.6,5.1c1.3,0,2.2-0.2,2.8-0.3l0.2,3.6 c-0.9,0.4-2.4,0.7-4.3,0.7c-2.2,0-4-0.7-5.2-2c-1.4-1.4-1.9-3.8-1.9-6.9V75.1h-4.1v-3.7h4.1v-6.3L146.6,63.9z"/><path fill="#FFFFFF" d="M171.4,97.8l-0.4-3.3h-0.2c-1.5,2.1-4.3,3.9-8.1,3.9c-5.4,0-8.1-3.8-8.1-7.6c0-6.4,5.7-9.9,15.9-9.8v-0.5 c0-2.2-0.6-6.1-6-6.1c-2.5,0-5,0.8-6.9,2l-1.1-3.2c2.2-1.4,5.4-2.3,8.7-2.3c8.1,0,10.1,5.5,10.1,10.8v9.9c0,2.3,0.1,4.5,0.4,6.3 H171.4z M170.7,84.4c-5.3-0.1-11.2,0.8-11.2,5.9c0,3.1,2.1,4.6,4.5,4.6c3.4,0,5.6-2.2,6.4-4.4c0.2-0.5,0.3-1,0.3-1.5V84.4z"/></g></g></a></g><a href="https://ourworldindata.org/grapher/employment-in-the-coal-industry-in-the-united-kingdom-1873-2016" target="_blank"><text font-size="24.30" x="15.0" y="34.4" fill="#555"><tspan x="15" y="34.44">Employment in the coal industry in the United Kingdom, 1873-2016</tspan></text></a><text font-size="14.40" x="15.0" y="52.8" fill="#666"><tspan x="15" y="52.81999999999999">Total number of individuals employed in the coal industry in the United Kingdom from 1873-2016. Figures include</tspan><tspan x="15" y="68.66">those employed as contractors by the coal industry.</tspan></text></g><g class="LineChart"><defs><clipPath id="boundsClip-705"><rect x="69.45400000000001" y="0" width="830" height="930.5999999999999"></rect></clipPath></defs><g class="AxisBoxView"><g class="HorizontalAxis"><text x="79.5" y="556.5" fill="#666" text-anchor="middle" font-size="16.2">1873</text><text x="198" y="556.5" fill="#666" text-anchor="middle" font-size="16.2">1900</text><text x="285.8" y="556.5" fill="#666" text-anchor="middle" font-size="16.2">1920</text><text x="373.6" y="556.5" fill="#666" text-anchor="middle" font-size="16.2">1940</text><text x="461.4" y="556.5" fill="#666" text-anchor="middle" font-size="16.2">1960</text><text x="549.2" y="556.5" fill="#666" text-anchor="middle" font-size="16.2">1980</text><text x="636.9" y="556.5" fill="#666" text-anchor="middle" font-size="16.2">2000</text><text x="707.2" y="556.5" fill="#666" text-anchor="middle" font-size="16.2">2016</text></g><g class="VerticalAxis"><text x="74.45" y="535.3" fill="#666" dominant-baseline="middle" text-anchor="end" font-size="16.2">0</text><text x="74.45" y="460.7" fill="#666" dominant-baseline="middle" text-anchor="end" font-size="16.2">200,000</text><text x="74.45" y="386.1" fill="#666" dominant-baseline="middle" text-anchor="end" font-size="16.2">400,000</text><text x="74.45" y="311.6" fill="#666" dominant-baseline="middle" text-anchor="end" font-size="16.2">600,000</text><text x="74.45" y="237" fill="#666" dominant-baseline="middle" text-anchor="end" font-size="16.2">800,000</text><text x="74.45" y="162.4" fill="#666" dominant-baseline="middle" text-anchor="end" font-size="16.2">1 million</text></g><g class="AxisGridLines"><line x1="79.45" y1="535.3" x2="707.18" y2="535.3" stroke="#ccc"></line><line x1="79.45" y1="460.7" x2="707.18" y2="460.7" stroke="#ddd" stroke-dasharray="3,2"></line><line x1="79.45" y1="386.1" x2="707.18" y2="386.1" stroke="#ddd" stroke-dasharray="3,2"></line><line x1="79.45" y1="311.6" x2="707.18" y2="311.6" stroke="#ddd" stroke-dasharray="3,2"></line><line x1="79.45" y1="237" x2="707.18" y2="237" stroke="#ddd" stroke-dasharray="3,2"></line><line x1="79.45" y1="162.4" x2="707.18" y2="162.4" stroke="#ddd" stroke-dasharray="3,2"></line></g><g class="AxisGridLines"><line x1="110.2" y1="535.30" x2="110.2" y2="91.20" stroke="#ddd" stroke-dasharray="3,2"></line><line x1="198" y1="535.30" x2="198" y2="91.20" stroke="#ddd" stroke-dasharray="3,2"></line><line x1="285.8" y1="535.30" x2="285.8" y2="91.20" stroke="#ddd" stroke-dasharray="3,2"></line><line x1="373.6" y1="535.30" x2="373.6" y2="91.20" stroke="#ddd" stroke-dasharray="3,2"></line><line x1="461.4" y1="535.30" x2="461.4" y2="91.20" stroke="#ddd" stroke-dasharray="3,2"></line><line x1="549.2" y1="535.30" x2="549.2" y2="91.20" stroke="#ddd" stroke-dasharray="3,2"></line><line x1="636.9" y1="535.30" x2="636.9" y2="91.20" stroke="#ddd" stroke-dasharray="3,2"></line></g></g><g clip-path="url(#boundsClip-705)"><g class="HeightedLegend clickable"><g class="legendMark"><rect x="717.184" y="527.8" width="117.81600000000002" height="14.4" fill="#fff" opacity="0"></rect><rect x="717.184" y="533.75" width="10" height="2.5" fill="#3360a9"></rect><text font-size="14.40" x="732.2" y="539.3" fill="#333"><tspan x="732.184" y="539.3199999999999">United Kingdom</tspan></text></g></g><g class="Lines"><rect x="79" y="91" width="628" height="444" fill="rgba(255,255,255,0)" opacity="0"></rect><g class="key-United-Kingdom_0"><path stroke="#3360a9" stroke-linecap="round" d="M80 361L123 335L167 277L211 197L255 123L259 148L264 187L268 170L273 162L277 166L281 112L286 91L295 131L299 106L303 102L308 133L317 166L321 194L325 190L330 196L334 221L338 239L343 249L347 249L352 255L356 256L360 247L365 246L369 252L374 258L378 277L382 273L387 274L391 273L396 274L400 277L404 272L409 267L413 268L418 277L422 276L426 270L431 269L435 272L439 273L444 273L448 271L453 275L457 287L461 309L466 321L470 328L475 338L479 348L483 366L488 378L492 390L497 412L501 421L505 427L510 429L514 433L518 441L523 441L527 441L532 442L536 443L540 446L545 445L549 447L554 471L558 474L562 480L567 484L571 493L576 501L580 507L584 510L589 514L593 517L597 521L602 525L606 532L611 533L615 531L619 532L624 530L628 531L633 531L637 531L641 531L646 532L650 532L655 532L659 533L663 533L668 533L672 533L677 533L681 533L685 533L690 533L694 534L698 534L703 535L707 535" fill="none" stroke-width="1.5"></path><g fill="#3360a9"><circle cx="80" cy="361" r="2"></circle><circle cx="123" cy="335" r="2"></circle><circle cx="167" cy="277" r="2"></circle><circle cx="211" cy="197" r="2"></circle><circle cx="255" cy="123" r="2"></circle><circle cx="259" cy="148" r="2"></circle><circle cx="264" cy="187" r="2"></circle><circle cx="268" cy="170" r="2"></circle><circle cx="273" cy="162" r="2"></circle><circle cx="277" cy="166" r="2"></circle><circle cx="281" cy="112" r="2"></circle><circle cx="286" cy="91" r="2"></circle><circle cx="295" cy="131" r="2"></circle><circle cx="299" cy="106" r="2"></circle><circle cx="303" cy="102" r="2"></circle><circle cx="308" cy="133" r="2"></circle><circle cx="317" cy="166" r="2"></circle><circle cx="321" cy="194" r="2"></circle><circle cx="325" cy="190" r="2"></circle><circle cx="330" cy="196" r="2"></circle><circle cx="334" cy="221" r="2"></circle><circle cx="338" cy="239" r="2"></circle><circle cx="343" cy="249" r="2"></circle><circle cx="347" cy="249" r="2"></circle><circle cx="352" cy="255" r="2"></circle><circle cx="356" cy="256" r="2"></circle><circle cx="360" cy="247" r="2"></circle><circle cx="365" cy="246" r="2"></circle><circle cx="369" cy="252" r="2"></circle><circle cx="374" cy="258" r="2"></circle><circle cx="378" cy="277" r="2"></circle><circle cx="382" cy="273" r="2"></circle><circle cx="387" cy="274" r="2"></circle><circle cx="391" cy="273" r="2"></circle><circle cx="396" cy="274" r="2"></circle><circle cx="400" cy="277" r="2"></circle><circle cx="404" cy="272" r="2"></circle><circle cx="409" cy="267" r="2"></circle><circle cx="413" cy="268" r="2"></circle><circle cx="418" cy="277" r="2"></circle><circle cx="422" cy="276" r="2"></circle><circle cx="426" cy="270" r="2"></circle><circle cx="431" cy="269" r="2"></circle><circle cx="435" cy="272" r="2"></circle><circle cx="439" cy="273" r="2"></circle><circle cx="444" cy="273" r="2"></circle><circle cx="448" cy="271" r="2"></circle><circle cx="453" cy="275" r="2"></circle><circle cx="457" cy="287" r="2"></circle><circle cx="461" cy="309" r="2"></circle><circle cx="466" cy="321" r="2"></circle><circle cx="470" cy="328" r="2"></circle><circle cx="475" cy="338" r="2"></circle><circle cx="479" cy="348" r="2"></circle><circle cx="483" cy="366" r="2"></circle><circle cx="488" cy="378" r="2"></circle><circle cx="492" cy="390" r="2"></circle><circle cx="497" cy="412" r="2"></circle><circle cx="501" cy="421" r="2"></circle><circle cx="505" cy="427" r="2"></circle><circle cx="510" cy="429" r="2"></circle><circle cx="514" cy="433" r="2"></circle><circle cx="518" cy="441" r="2"></circle><circle cx="523" cy="441" r="2"></circle><circle cx="527" cy="441" r="2"></circle><circle cx="532" cy="442" r="2"></circle><circle cx="536" cy="443" r="2"></circle><circle cx="540" cy="446" r="2"></circle><circle cx="545" cy="445" r="2"></circle><circle cx="549" cy="447" r="2"></circle><circle cx="554" cy="471" r="2"></circle><circle cx="558" cy="474" r="2"></circle><circle cx="562" cy="480" r="2"></circle><circle cx="567" cy="484" r="2"></circle><circle cx="571" cy="493" r="2"></circle><circle cx="576" cy="501" r="2"></circle><circle cx="580" cy="507" r="2"></circle><circle cx="584" cy="510" r="2"></circle><circle cx="589" cy="514" r="2"></circle><circle cx="593" cy="517" r="2"></circle><circle cx="597" cy="521" r="2"></circle><circle cx="602" cy="525" r="2"></circle><circle cx="606" cy="532" r="2"></circle><circle cx="611" cy="533" r="2"></circle><circle cx="615" cy="531" r="2"></circle><circle cx="619" cy="532" r="2"></circle><circle cx="624" cy="530" r="2"></circle><circle cx="628" cy="531" r="2"></circle><circle cx="633" cy="531" r="2"></circle><circle cx="637" cy="531" r="2"></circle><circle cx="641" cy="531" r="2"></circle><circle cx="646" cy="532" r="2"></circle><circle cx="650" cy="532" r="2"></circle><circle cx="655" cy="532" r="2"></circle><circle cx="659" cy="533" r="2"></circle><circle cx="663" cy="533" r="2"></circle><circle cx="668" cy="533" r="2"></circle><circle cx="672" cy="533" r="2"></circle><circle cx="677" cy="533" r="2"></circle><circle cx="681" cy="533" r="2"></circle><circle cx="685" cy="533" r="2"></circle><circle cx="690" cy="533" r="2"></circle><circle cx="694" cy="534" r="2"></circle><circle cx="698" cy="534" r="2"></circle><circle cx="703" cy="535" r="2"></circle><circle cx="707" cy="535" r="2"></circle></g></g></g></g></g><g style="fill: #777;" class="SourcesFooter"><g style="fill: #777;" class="clickable"><text font-size="12.60" x="15.0" y="581.6"><tspan x="15" y="581.58">Source: UK Department for Energy and Climate Change (DECC)</tspan></text></g><text font-size="12.60" x="582.4" y="581.6"><tspan x="582.37" y="581.58"><a target='_blank' style='fill: #777;' href='https://ourworldindata.org/fossil-fuels/'>OurWorldInData.org/fossil-fuels/</a> • <a style="fill: #777;" href="http://creativecommons.org/licenses/by-sa/4.0/deed.en_US" target="_blank">CC BY-SA</a></tspan></text></g></g></svg>
